X: 948
T: Gün Gelir de Beni...
C: Şekip Ayhan Özışık
O: Turkey
F: http://compmusic.upf.edu/node/140
N: ussak--sarki--duyek--gun_gelir_de--sekip_ayhan_ozisik
N: makam= ussak
N: form= sarki
N: usul= duyek = 8/4
M: 8/4
L: 1/16
K: C _2/4B   
Q: 1/4=156
%%MIDI tuningsystem comma53
z2 f2 e2 f2 e4 d2 c2  | z2 e2 d2 e2 d4 c2 B2  | \
w:   |   | 
z2 d2 c2 d2 c4 B2 A2  | 
w:   | 
c2 dc B2 BA AB cd ed e2  | z2 f2 e2 f2 e4 d2 c2  | \
w:   |   | 
z2 e2 d2 e2 d4 c2 B2  | 
w:   | 
z2 d2 c2 d2 c4 B2 A2  | c2 dc B2 BA A4 GA Bc  | \
w:   |   | 
d2 d4 B2 c3d cB BA  | 
w:  *  Gün  ge lir  *  de  *  be  | 
A6 AB cB AB A4  | c2 d2 e4 d4 c4  | B2 c2 d4 c4 B2 A2  | \
w:  ni  SAZ  |  u nu tur sun   |  u nu tur sun   | 
c2 dc B2 BA A4 ed e2  | 
w:  de miş *  *  *  *  tin   SAZ  | 
z2 e4 d2 d2 c2 c2 B2  | B2 c4 BA B2 c2 d4  | \
w:  Kal *  bin *  de ki   |  bu  der *  *  di   | 
c2 d2 e4 d4 c4  | B2 c2 d4 c4 B2 A2  | 
w:  u yu tur sun   |  u yu tur sun   | 
c2 dc B2 BA A8  | e2 f4 e2 ag gf fe ed  | \
w:  de miş *  *  *  *  tin    |  Ne  ben  *  se *  ni  *  u *  nu  | 
dc c4 BA B2 c2 d4  | 
w:  ta *  bil *  *  dim    | 
d2 e4 d2 gf fe ed dc  | cB BA c3d cB BA B2 A2  | 
w:  Ne  bu  *  der *  di *  mi  *  u  |  yu *  ta *  bil *  dim    | 
c2 d4 fe ed dc cB BA  | c2 dc B2 BA A4 fe f2  | 
w:  Ne  bu  gön *  lü *  mü  *  a *  vu  |  ta bil *  *  *  *  dim  ah    | 
z2 f2 e2 f2 e4 d2 c2  | z2 e2 d2 e2 d4 c2 B2  | \
w:  U nu ta mam  se ni   |  u nu ta mam  se ni   | 
z2 d2 c2 d2 c4 B2 A2  | 
w:  u nu ta mam  se ni   | 
c2 dc B2 BA A4 fe f2  | z2 f2 e2 f2 e4 d2 c2  | \
w:  u nu *  *  ta *  mam   SAZ  |  U nu ta mam  se ni   | 
z2 e2 d2 e2 d4 c2 B2  | 
w:  u nu ta mam  se ni   | 
z2 d2 c2 d2 c4 B2 A2  | c2 dc B2 BA A8  | \
w:  u nu ta mam  se ni   |  u nu *  *  ta *  mam    | 
z2 f2 e2 f2 e4 d2 c2  | 
w:   | 
z2 e2 d2 e2 d4 c2 B2  | z2 d2 c2 d2 c4 B2 A2  | \
w:   |   | 
c2 dc B2 BA AB cd ed e2  | 
w:   | 
z2 f2 e2 f2 e4 d2 c2  | z2 e2 d2 e2 d4 c2 B2  | \
w:   |   | 
z2 d2 c2 d2 c4 B2 A2  | 
w:   | 
c2 dc B2 BA A4 GA Bc  | d2 d4 B2 c3d cB BA  | \
w:   |  *  Gün  ge lir  *  de  *  be  | 
A6 AB cB AB A4  | 
w:  ni  SAZ  | 
c2 d2 e4 d4 c4  | B2 c2 d4 c4 B2 A2  | \
w:  u nu tur sun   |  u nu tur sun   | 
c2 dc B2 BA A4 ed e2  | 
w:  de miş *  *  *  *  tin   SAZ  | 
z2 e4 d2 d2 c2 c2 B2  | B2 c4 BA B2 c2 d4  | \
w:  Kal *  bin *  de ki   |  bu  der *  *  di   | 
c2 d2 e4 d4 c4  | B2 c2 d4 c4 B2 A2  | 
w:  u yu tur sun   |  u yu tur sun   | 
c2 dc B2 BA A8  | e2 f4 e2 ag gf fe ed  | \
w:  de miş *  *  *  *  tin    |  Ne  ben  *  se *  ni  *  u *  nu  | 
dc c4 BA B2 c2 d4  | 
w:  ta *  bil *  *  dim    | 
d2 e4 d2 gf fe ed dc  | cB BA c3d cB BA B2 A2  | 
w:  Ne  bu  *  der *  di *  mi  *  u  |  yu *  ta *  bil *  dim    | 
c2 d4 fe ed dc cB BA  | c2 dc B2 BA A4 fe f2  | 
w:  Ne  bu  gön *  lü *  mü  *  a *  vu  |  ta bil *  *  *  *  dim  ah    | 
z2 f2 e2 f2 e4 d2 c2  | z2 e2 d2 e2 d4 c2 B2  | \
w:  U nu ta mam  se ni   |  u nu ta mam  se ni   | 
z2 d2 c2 d2 c4 B2 A2  | 
w:  u nu ta mam  se ni   | 
c2 dc B2 BA A4 fe f2  | z2 f2 e2 f2 e4 d2 c2  | \
w:  u nu *  *  ta *  mam   SAZ  |  U nu ta mam  se ni   | 
z2 e2 d2 e2 d4 c2 B2  | 
w:  u nu ta mam  se ni   | 
z2 d2 c2 d2 c4 B2 A2  | c2 dc B2 BA A8  | |


